X: 179
T: No_88_Song_of_the_Owl_Medicine.krn
N: Derived from No_88_Song_of_the_Owl_Medicine.krn
%%abc-version 2.0
%%abcx-abcm2ps-target-version 5.9.1 (29 Sep 2008)
%%abc-creator hum2abc beta
%%abcx-conversion-date 2019/03/15 08:29:13
%%humdrum-veritas 4108616121
%%humdrum-veritas-data 350312687
%%linebreak <none>
%%barnumbers 0
L: 1/8
M: 2/4
%%staves {1 2}
V: 1 clef=bass
V: 2 clef=bass
K: C
[V:1] B, [I:setbarnb 1]| 
[V:2] z | 
[V:1] B,B, B,A, | 
[V:2] G,,G,, G,,G,, | 
[V:1] (A,E,) E,E, | 
[V:2] G,,G,, G,,G,, | 
[V:1] F,3F, | 
[V:2] z4 | 
[V:1] F,F, F,E, | 
[V:2] z4 | 
[V:1] (E,C,) C,C, | 
[V:2] z4 | 
[V:1] C,3C, | 
[V:2] z4 | 
[V:1] C,E, E,E, | 
[V:2] z4 | 
[V:1] (E,C,) E,E, | 
[V:2] z4 | 
[V:1] E,3E, | 
[V:2] z4 | 
[V:1] E,E, E,E, | 
[V:2] z4 | 
[V:1] E,2E,E, | 
[V:2] z4 | 
[V:1] E,2A,A, | 
[V:2] z4 | 
[V:1] E,E, F,F, | 
[V:2] z4 | 
[V:1] F,2F,F, | 
[V:2] z4 | 
[V:1] F,3F, | 
[V:2] z4 | 
[V:1] F,F, F,E, | 
[V:2] z4 | 
[V:1] (E,C,) C,C, | 
[V:2] z4 | 
[V:1] C,3C, | 
[V:2] z4 | 
[V:1] C,E, E,E, | 
[V:2] z4 | 
[V:1] (E,C,) E,E, | 
[V:2] z4 | 
[V:1] E,3E, | 
[V:2] z4 | 
[V:1] E,E, E,E, | 
[V:2] z4 | 
[V:1] E,2E,E, | 
[V:2] z4 | 
[V:1] E,3z
[V:2] z4



